X:1
T: Hon. Capt. Maitland's Strathspey
C:
R:Strathspey
Q: 128
K:G
M:4/4
L:1/16
|:D2|GG3 B3G c3A F3D|GG3 B3G d3G B3G|ca3 Bg3 A3D F3D|GG3 B3A G4-G2B2|
GG3 B3G c3A F3D|GG3 B3G d3G B3G|ca3 Bg3 A3D F3D|GG3 B3A G4-G2Bc|
dg3 Bg3 A3D F3D|dg3 Bg3 dg3 Bg3|ca3 Bg3 A3D F3D|GG3 B3A G4-G2Bc|
dg3 Bg3 A3D F3D|dg3 Bg3 dg3 Bg3|ca3 Bg3 A3D F3D|GG3 B3A G4-G2:|
